X: 33433
T: Ra Ra's
R: reel
M: 4/4
K: Dmajor
DB,|A,B,DE ~F3D|EGFD EFGA|B2AF GFED|B2AF GFED|
A,B,DE FEFD|EGFD EFGA|(3Bcd AF GFEG|F2EG FD:|
Dc|~d3c BABd|~f3 d edcd|BABd A~F3|dBAF E ~B,3|
A,B,DE FEFD|EGFD EFGA|(3Bcd AF GFEG|F2EG FD:|D2

